assets/svg/1F467.svg

<svg xmlns="http://www.w3.org/2000/svg" viewBox="0 0 64 64" enable-background="new 0 0 64 64"><g fill="#633d19"><path d="m48.13 60.18c.186 1.613 4.361 1.436 8.824-.488 4.473-1.928 6.518-5.922 6.324-7.535-.18-1.617-6.834-19.675-11.301-17.748-4.466 1.927-4.03 24.16-3.847 25.771"/><path d="m58.891 28.896c0 7.911-12.1 14.333-27.02 14.333l0 0c-14.912 0-27.02-6.422-27.02-14.333v-7.656c0-7.912 12.11-20.19 27.02-20.19l0 0c14.915 0 27.02 12.274 27.02 20.19v7.656"/></g><path fill="#ed307c" d="m58.53 36.629c.434 2.625-2.01 2.914-5.33 3.377-3.318.467-6.262.926-6.699-1.697-.436-2.625 1.906-5.127 5.227-5.594 3.322-.462 6.367 1.29 6.802 3.914"/><path fill="#633d19" d="m15.872 60.18c-.188 1.613-4.359 1.436-8.823-.488-4.472-1.928-6.519-5.922-6.327-7.535.182-1.617 6.835-19.675 11.304-17.748 4.466 1.927 4.03 24.16 3.846 25.771"/><path fill="#ed307c" d="m5.475 36.629c-.436 2.625 2.01 2.914 5.328 3.377 3.319.467 6.264.926 6.696-1.697.44-2.625-1.903-5.127-5.223-5.594-3.321-.462-6.369 1.29-6.801 3.914"/><path fill="#fbb042" d="m7.313 35.1c0 9.754 10.823 17.646 24.2 17.646 13.36 0 24.19-7.893 24.19-17.646 0-9.739-10.824-33.768-24.18-33.768-13.373 0-24.2 24.03-24.2 33.768"/><g fill="#25333a"><path d="m26.825 35.697c0 2.381-1.604 4.318-3.564 4.318-1.975 0-3.56-1.938-3.56-4.318 0-2.383 1.585-4.332 3.56-4.332 1.959 0 3.564 1.949 3.564 4.332"/><path d="m43.746 35.697c0 2.381-1.598 4.318-3.561 4.318-1.975 0-3.561-1.938-3.561-4.318 0-2.383 1.586-4.332 3.561-4.332 1.963 0 3.561 1.949 3.561 4.332"/></g><path fill="#633d19" d="m52.703 27.805c.041-6.621.074-11.02.143-17.766-11.979-11.666-29.15-12.01-41.44-.126-.133 6.646-.266 13.14-.409 19.667 13.71-1.685 27.76-2.273 41.709-1.775"/><path fill="#ed307c" d="m15.09 14.393c.758-14.261 32.664-11.436 35.535-2.73-12.996-1.827-22.71-1.559-35.535 2.73"/><g opacity=".48"><path fill="#ed307c" d="m55.31 42.34c0 2.074-4.115 3.75-9.189 3.75-5.078 0-9.193-1.676-9.193-3.75 0-2.068 4.115-3.744 9.193-3.744 5.073 0 9.189 1.675 9.189 3.744"/></g><g opacity=".48"><path fill="#ed307c" d="m26.911 42.34c0 2.074-4.115 3.75-9.19 3.75-5.08 0-9.19-1.676-9.19-3.75 0-2.068 4.11-3.744 9.19-3.744 5.074 0 9.19 1.675 9.19 3.744"/></g></svg>

<?xml version="1.0" encoding="UTF-8" standalone="no"?>
<!-- Generator: Adobe Illustrator 16.0.0, SVG Export Plug-In . SVG Version: 6.00 Build 0)  -->

<svg
   xmlns:dc="http://purl.org/dc/elements/1.1/"
   xmlns:cc="http://creativecommons.org/ns#"
   xmlns:rdf="http://www.w3.org/1999/02/22-rdf-syntax-ns#"
   xmlns:svg="http://www.w3.org/2000/svg"
   xmlns="http://www.w3.org/2000/svg"
   xmlns:sodipodi="http://sodipodi.sourceforge.net/DTD/sodipodi-0.dtd"
   xmlns:inkscape="http://www.inkscape.org/namespaces/inkscape"
   version="1.1"
   id="Layer_1"
   x="0px"
   y="0px"
   width="64px"
   height="64px"
   viewBox="0 0 64 64"
   enable-background="new 0 0 64 64"
   xml:space="preserve"
   inkscape:version="0.48.5 r10040"
   sodipodi:docname="1F467.svg"
   inkscape:export-filename="D:\TESTINGEMOJI\SVGTEST\1F467.png"
   inkscape:export-xdpi="90"
   inkscape:export-ydpi="90"><metadata
   id="metadata3337"><rdf:RDF><cc:Work
       rdf:about=""><dc:format>image/svg+xml</dc:format><dc:type
         rdf:resource="http://purl.org/dc/dcmitype/StillImage" /><dc:title></dc:title></cc:Work></rdf:RDF></metadata><defs
   id="defs3335" /><sodipodi:namedview
   pagecolor="#ffffff"
   bordercolor="#666666"
   borderopacity="1"
   objecttolerance="10"
   gridtolerance="10"
   guidetolerance="10"
   inkscape:pageopacity="0"
   inkscape:pageshadow="2"
   inkscape:window-width="640"
   inkscape:window-height="480"
   id="namedview3333"
   showgrid="false"
   inkscape:zoom="3.6875"
   inkscape:cx="32"
   inkscape:cy="32"
   inkscape:window-x="509"
   inkscape:window-y="306"
   inkscape:window-maximized="0"
   inkscape:current-layer="Layer_1" />
<g
   id="g3285">
	<path
   fill="#633D19"
   d="M48.129,60.184c0.186,1.613,4.361,1.436,8.824-0.488c4.473-1.928,6.518-5.922,6.324-7.535   c-0.18-1.617-6.834-19.675-11.301-17.748C47.51,36.34,47.941,58.57,48.129,60.184z"
   id="path3287" />
</g>
<g
   id="g3289">
	<path
   fill="#633D19"
   d="M58.891,28.896c0,7.911-12.102,14.333-27.016,14.333l0,0c-14.912,0-27.017-6.422-27.017-14.333V21.24   c0-7.912,12.105-20.186,27.017-20.186l0,0c14.915,0,27.016,12.274,27.016,20.186V28.896z"
   id="path3291" />
</g>
<g
   id="g3293">
	<path
   fill="#ED307C"
   d="M58.527,36.629c0.434,2.625-2.006,2.914-5.33,3.377c-3.318,0.467-6.262,0.926-6.699-1.697   c-0.436-2.625,1.906-5.127,5.227-5.594C55.047,32.253,58.092,34.005,58.527,36.629z"
   id="path3295" />
</g>
<g
   id="g3297">
	<path
   fill="#633D19"
   d="M15.872,60.184c-0.188,1.613-4.359,1.436-8.823-0.488c-4.472-1.928-6.519-5.922-6.327-7.535   c0.182-1.617,6.835-19.675,11.304-17.748C16.492,36.34,16.059,58.57,15.872,60.184z"
   id="path3299" />
</g>
<g
   id="g3301">
	<path
   fill="#ED307C"
   d="M5.475,36.629c-0.436,2.625,2.006,2.914,5.328,3.377c3.319,0.467,6.264,0.926,6.696-1.697   c0.44-2.625-1.903-5.127-5.223-5.594C8.955,32.253,5.907,34.005,5.475,36.629z"
   id="path3303" />
</g>
<g
   id="g3305">
	<path
   fill="#FBB042"
   d="M7.313,35.105c0,9.754,10.823,17.646,24.196,17.646c13.36,0,24.185-7.893,24.185-17.646   c0-9.739-10.824-33.768-24.185-33.768C18.136,1.337,7.313,25.366,7.313,35.105z"
   id="path3307" />
</g>
<g
   id="g3309">
	<path
   fill="#25333A"
   d="M26.825,35.697c0,2.381-1.604,4.318-3.564,4.318c-1.975,0-3.56-1.938-3.56-4.318   c0-2.383,1.585-4.332,3.56-4.332C25.22,31.365,26.825,33.314,26.825,35.697z"
   id="path3311" />
</g>
<g
   id="g3313">
	<path
   fill="#25333A"
   d="M43.746,35.697c0,2.381-1.598,4.318-3.561,4.318c-1.975,0-3.561-1.938-3.561-4.318   c0-2.383,1.586-4.332,3.561-4.332C42.148,31.365,43.746,33.314,43.746,35.697z"
   id="path3315" />
</g>
<g
   id="g3317">
	<path
   fill="#633D19"
   d="M52.703,27.805c0.041-6.621,0.074-11.018,0.143-17.766C40.867-1.627,23.7-1.972,11.403,9.913   c-0.133,6.646-0.266,13.141-0.409,19.667C24.704,27.895,38.754,27.307,52.703,27.805z"
   id="path3319" />
</g>
<g
   id="g3321">
	<path
   fill="#ED307C"
   d="M15.094,14.393c0.758-14.261,32.664-11.436,35.535-2.73C37.633,9.836,27.919,10.104,15.094,14.393z"
   id="path3323" />
</g>
<g
   opacity="0.48"
   id="g3325">
	<path
   fill="#ED307C"
   d="M55.311,42.344c0,2.074-4.115,3.75-9.189,3.75c-5.078,0-9.193-1.676-9.193-3.75   c0-2.068,4.115-3.744,9.193-3.744C51.195,38.6,55.311,40.275,55.311,42.344z"
   id="path3327" />
</g>
<g
   opacity="0.48"
   id="g3329">
	<path
   fill="#ED307C"
   d="M26.911,42.344c0,2.074-4.115,3.75-9.19,3.75c-5.08,0-9.19-1.676-9.19-3.75c0-2.068,4.11-3.744,9.19-3.744   C22.795,38.6,26.911,40.275,26.911,42.344z"
   id="path3331" />
</g>
</svg>
